X:1
T:Title
T:Sonata IV, Allegro
T:Michel Corrette
T:From VI Duetti à Due Violini ò à Flauti traversi
C:Composer
%%score 1 2
L:1/8
Q:1/4=80
M:4/4
K:G
V:1 treble nm="Violin" snm="Vln."
V:2 treble nm="Violin" snm="Vln."
V:1
 z8 | E/F/G/A/ BB eBfB | g2 f2 ebge | ^d/e/f Ba g/f/g/a/ g/f/g/e/ | fB z b/a/ gfge | %5
 a2 z a/g/ fefd | g2 z g/f/ edec | f2 z f/e/ ^d^c^dB | e/^d/e/B/ e/^d/e/B/ f/e/f/B/ f/e/f/B/ | %9
 g/f/g/a/ g/f/g/a/ bB ea | g2 f2 eg/f/ eg | ^ce/d/ ^ce ^A^c/B/ ^A^c | Fffe edd^c | %13
 cBB^A e^c' ed/^c/ | db d^c/B/ cedc | d2 ^c2 B4 :: z8 | z8 | z8 |] %19
V:2
 E/F/G/A/ BB eBfB | g2 f2 e^d/=c/ B/A/G/F/ | Eee^d egbg | fB^dB e/e/^d eE | BB/^c/ ^dB e2 z e/d/ | %5
w: |||||
 cBcA d2 z d/c/ | BABG c2 z c/B/ | AGAF B2 z B/A/ | GFGE ^d^c^dB | e/^d/e/f/ e/^d/e/f/ gb/a/ gf | %10
w: |||||
 e2 ^d2 e2 z2 | z g/f/ eg ^ce/d/ ^ce | ^AA/^G/ ^AF B2 z e | edd^c cFFF | %14
w: |||* * * * I'll stop courtesy accidentalsfromhereon.|
"_Notes on transcription.\n1. Bar 14. Original has no courtesy natural on initial C, which one would expect if it were really a natural.\nTranscribed here exactly as in original, so strictly it's a natural..\nHowever, I think it's a bug in the original. The whole pattern warrants a # sign. Also, all C's around are C# ...\nAsk an expert.\n2. blah\n3. blah\n" B2 z F/^G/ ^A^cBA | %15
w: |
 B2 ^A2 B4 :: z8 | z8 | z8 |] %19
w: ||||

